src/assets/trophy.svg

<svg width="200" height="200" viewBox="0 0 200 200" fill="none" xmlns="http://www.w3.org/2000/svg">
<g clip-path="url(#clip0_2802_244)">
<path d="M100 8.59374C47.1446 8.59375 4.29686 51.4415 4.29687 104.297C4.29687 157.152 47.1446 200 100 200C152.855 200 195.703 157.152 195.703 104.297C195.703 51.4415 152.855 8.59374 100 8.59374Z" fill="url(#paint0_linear_2802_244)"/>
<path d="M106.836 141.326V120.382C106.029 120.58 105.187 120.687 104.319 120.687H95.6809C94.8133 120.687 93.9707 120.58 93.1641 120.382V141.326H106.836Z" fill="#FCC24E"/>
<path d="M99.2188 141.326V120.687H95.6809C94.8133 120.687 93.9707 120.58 93.1641 120.382V141.326H99.2188Z" fill="#F2A635"/>
<path d="M100 111.329C94.7644 111.329 89.7504 110.365 85.1226 108.61V110.536C85.1226 116.367 89.8496 121.094 95.6808 121.094H104.319C110.15 121.094 114.877 116.367 114.877 110.536V108.61C110.249 110.365 105.236 111.329 100 111.329Z" fill="#FFE67C"/>
<path d="M97.2242 111.236C92.9906 110.958 88.9261 110.053 85.123 108.61V110.536C85.123 116.367 89.85 121.094 95.6812 121.094H104.32C104.905 121.094 105.479 121.044 106.038 120.952C101.25 120.168 97.5468 116.164 97.2242 111.236Z" fill="#FFBA30"/>
<path d="M115.234 149.219V142.578C115.234 141.504 114.355 140.625 113.281 140.625H86.7188C85.6445 140.625 84.7656 141.504 84.7656 142.578V149.219H115.234Z" fill="#FCC24E"/>
<path d="M96.4844 149.219V142.578C96.4844 141.504 97.3633 140.625 98.4375 140.625H86.7188C85.6445 140.625 84.7656 141.504 84.7656 142.578V149.219H96.4844Z" fill="#F2A635"/>
<path d="M136.914 182.422V150.391C136.914 149.316 136.035 148.438 134.961 148.438H65.0391C63.9648 148.438 63.0859 149.316 63.0859 150.391V182.422H136.914Z" fill="#D3D3EB"/>
<path d="M69.1406 182.422V150.391C69.1406 149.316 70.0195 148.438 71.0938 148.438H65.0391C63.9648 148.438 63.0859 149.316 63.0859 150.391V182.422H69.1406Z" fill="#C0C0D6"/>
<path d="M126.18 173.828C126.18 174.902 125.302 175.781 124.227 175.781H75.7726C74.6984 175.781 73.8195 174.902 73.8195 173.828V157.422C73.8195 156.348 74.6984 155.469 75.7726 155.469H124.227C125.302 155.469 126.18 156.348 126.18 157.422V173.828Z" fill="url(#paint1_linear_2802_244)"/>
<path d="M81.623 173.828V157.422C81.623 156.348 82.5019 155.469 83.5762 155.469H75.7726C74.6984 155.469 73.8195 156.348 73.8195 157.422V173.828C73.8195 174.902 74.6984 175.781 75.7726 175.781H83.5762C82.5019 175.781 81.623 174.902 81.623 173.828Z" fill="#00B37E"/>
<path d="M145.117 182.031H54.8828C53.8086 182.031 52.9297 182.91 52.9297 183.984V187.637C66.8289 195.504 82.8887 200 100 200C117.111 200 133.171 195.504 147.07 187.637V183.984C147.07 182.91 146.191 182.031 145.117 182.031Z" fill="#C0C0D6"/>
<path d="M64.8438 183.984C64.8438 182.91 65.7227 182.031 66.7969 182.031H54.8828C53.8086 182.031 52.9297 182.91 52.9297 183.984V187.637C56.7457 189.797 60.725 191.701 64.8438 193.329V183.984Z" fill="#AEAEC2"/>
<path d="M165.725 9.99652H150.586V13.2813C150.586 14.143 149.885 14.8438 149.023 14.8438H142.468C142.252 14.8438 142.078 15.0188 142.078 15.2344V19.7621H162.554C161.718 36.8727 153.982 52.2 142.078 63.0168V69.252C142.078 71.5207 141.894 73.7473 141.547 75.9195C160.189 62.809 172.395 41.1379 172.395 16.6672C172.395 12.9887 169.403 9.99652 165.725 9.99652Z" fill="#FCC24E"/>
<path d="M57.9227 69.252V63.0168C46.0184 52.2 38.282 36.8727 37.4461 19.7621H57.9227V15.2344C57.9227 15.0188 57.7477 14.8438 57.532 14.8438H50.9766C50.1149 14.8438 49.4141 14.143 49.4141 13.2813V9.99652H34.2754C30.5973 9.99652 27.6047 12.9891 27.6047 16.6672C27.6047 41.1383 39.8113 62.8094 58.4527 75.9199C58.1055 73.7473 57.9227 71.5207 57.9227 69.252Z" fill="#FFE67C"/>
<path d="M57.532 14.8438V69.252C57.532 92.7063 76.5457 111.72 100 111.72C123.454 111.72 142.468 92.7063 142.468 69.252V14.8438H57.532Z" fill="#FCC24E"/>
<path d="M66.2614 69.2421V14.4445H57.7778V69.2421C57.7778 92.6964 76.7915 111.71 100.246 111.71C101.668 111.71 103.072 111.635 104.458 111.497C83.0091 109.355 66.2614 91.2543 66.2614 69.2421Z" fill="#F2A635"/>
<path d="M100 89.6484C115.964 89.6484 128.906 76.7067 128.906 60.7422C128.906 44.7777 115.964 31.8359 100 31.8359C84.0355 31.8359 71.0938 44.7777 71.0938 60.7422C71.0938 76.7067 84.0355 89.6484 100 89.6484Z" fill="url(#paint2_linear_2802_244)"/>
<path d="M78.5156 60.7418C78.5156 46.0355 89.5004 33.9035 103.711 32.0809C102.495 31.925 101.259 31.8355 100 31.8355C84.0355 31.8355 71.0938 44.7773 71.0938 60.7418C71.0938 76.7063 84.0355 89.6481 100 89.6481C101.259 89.6481 102.495 89.5586 103.711 89.4027C89.5004 87.5805 78.5156 75.4481 78.5156 60.7418Z" fill="#00B37E"/>
<path d="M110.061 78.7883C109.583 78.7887 109.095 78.659 108.609 78.4035L100.739 74.2664C100.62 74.2039 100.356 74.1309 100 74.1309C99.645 74.1309 99.3801 74.2039 99.2606 74.2664L91.3915 78.4035C90.9055 78.659 90.4169 78.7883 89.9395 78.7883C89.2145 78.7883 88.5657 78.4926 88.1134 77.9559C87.6114 77.3609 87.4208 76.5352 87.5759 75.6309L89.079 66.8684C89.145 66.4836 88.9016 65.7348 88.6223 65.4621L82.2559 59.2563C81.427 58.448 81.1266 57.4465 81.4317 56.5082C81.7368 55.5699 82.5684 54.9367 83.7137 54.7703L92.5114 53.4922C92.8973 53.4359 93.5348 52.973 93.7075 52.623L97.6419 44.6504C98.1544 43.6125 99.0137 43.0176 100 43.0176C100.987 43.0176 101.847 43.6125 102.359 44.6504L106.293 52.623C106.466 52.973 107.103 53.4363 107.489 53.4922L116.287 54.7703C117.432 54.9367 118.264 55.5699 118.569 56.5082C118.874 57.4465 118.574 58.4481 117.745 59.2559L111.379 65.4621C111.099 65.7344 110.856 66.4836 110.922 66.8684L112.424 75.6309C112.579 76.5352 112.389 77.3609 111.887 77.9559C111.434 78.4926 110.786 78.7883 110.061 78.7883Z" fill="#EFEFEF"/>
<path d="M94.0235 74.7934L95.652 65.2984C95.7235 64.8816 95.4598 64.0695 95.1571 63.7746L88.2582 57.05C87.411 56.2238 87.0809 55.2121 87.3227 54.2465L83.7129 54.7711C82.5676 54.9375 81.736 55.5707 81.4309 56.509C81.1258 57.4473 81.4262 58.4488 82.2551 59.257L88.6215 65.4629C88.9008 65.7352 89.1442 66.4844 89.0782 66.8691L87.575 75.6317C87.4204 76.536 87.611 77.3617 88.1125 77.9567C88.5653 78.4934 89.2137 78.7891 89.9387 78.7891C90.4165 78.7891 90.9047 78.6598 91.3907 78.4043L94.309 76.8699C93.995 76.2832 93.8911 75.566 94.0235 74.7934Z" fill="#DADADA"/>
<path d="M150.977 13.2812C150.977 14.3555 150.098 15.2344 149.023 15.2344H50.9766C49.9023 15.2344 49.0234 14.3555 49.0234 13.2812V1.95312C49.0234 0.878906 49.9023 0 50.9766 0H149.023C150.098 0 150.977 0.878906 150.977 1.95312V13.2812Z" fill="#FFE67C"/>
<path d="M60.9375 13.2812V1.95312C60.9375 0.878906 61.8164 0 62.8906 0H50.9766C49.9023 0 49.0234 0.878906 49.0234 1.95312V13.2812C49.0234 14.3555 49.9023 15.2344 50.9766 15.2344H62.8906C61.8164 15.2344 60.9375 14.3555 60.9375 13.2812Z" fill="#FFBA30"/>
<path d="M110.547 163.672H89.4531C88.3746 163.672 87.5 162.797 87.5 161.719C87.5 160.64 88.3746 159.766 89.4531 159.766H110.547C111.626 159.766 112.5 160.64 112.5 161.719C112.5 162.797 111.626 163.672 110.547 163.672Z" fill="white"/>
<path d="M105.859 170.703H94.1406C93.0621 170.703 92.1875 169.829 92.1875 168.75C92.1875 167.671 93.0621 166.797 94.1406 166.797H105.859C106.938 166.797 107.812 167.671 107.812 168.75C107.812 169.829 106.938 170.703 105.859 170.703Z" fill="white"/>
</g>
<defs>
<linearGradient id="paint0_linear_2802_244" x1="82.5" y1="8.59374" x2="82.5" y2="199.594" gradientUnits="userSpaceOnUse">
<stop stop-color="#515159"/>
<stop offset="1" stop-color="#393940" stop-opacity="0"/>
</linearGradient>
<linearGradient id="paint1_linear_2802_244" x1="73.8195" y1="155.469" x2="89.8761" y2="181.925" gradientUnits="userSpaceOnUse">
<stop stop-color="#57B6E5"/>
<stop offset="1" stop-color="#00B37E"/>
</linearGradient>
<linearGradient id="paint2_linear_2802_244" x1="71.0938" y1="31.8359" x2="117.85" y2="61.7228" gradientUnits="userSpaceOnUse">
<stop stop-color="#57B6E5"/>
<stop offset="1" stop-color="#00B37E"/>
</linearGradient>
<clipPath id="clip0_2802_244">
<rect width="200" height="200" fill="white"/>
</clipPath>
</defs>
</svg>

<svg version="1.2" xmlns="http://www.w3.org/2000/svg" viewBox="0 0 200 200" width="200" height="200">
	<title>trophy</title>
	<defs>
		<clipPath clipPathUnits="userSpaceOnUse" id="cp1">
			<path d="m0 0h200v200h-200z"/>
		</clipPath>
		<linearGradient id="g1" x2="1" gradientUnits="userSpaceOnUse" gradientTransform="matrix(0,191,-191,0,82.5,8.594)">
			<stop offset="0" stop-color="#515159" stop-opacity="1"/>
			<stop offset="1" stop-color="#393940" stop-opacity="0"/>
		</linearGradient>
	</defs>
	<style>
		.s0 { fill: url(#g1) } 
		.s1 { fill: #fcc24e } 
		.s2 { fill: #f2a635 } 
		.s3 { fill: #ffe67c } 
		.s4 { fill: #ffba30 } 
		.s5 { fill: #d3d3eb } 
		.s6 { fill: #c0c0d6 } 
		.s7 { fill: #aeaec2 } 
		.s8 { fill: #efefef } 
		.s9 { fill: #dadada } 
		.s10 { fill: #ffffff } 
	</style>
	<g id="Clip-Path" clip-path="url(#cp1)">
		<g>
			<path class="s0" d="m100 8.6c-52.9 0-95.7 42.8-95.7 95.7 0 52.9 42.8 95.7 95.7 95.7 52.9 0 95.7-42.8 95.7-95.7 0-52.9-42.8-95.7-95.7-95.7z"/>
			<path class="s1" d="m106.8 141.3v-20.9q-1.2 0.3-2.5 0.3h-8.6q-1.3 0-2.5-0.3v20.9z"/>
			<path class="s2" d="m99.2 141.3v-20.6h-3.5q-1.3 0-2.5-0.3v20.9z"/>
			<path class="s3" d="m100 111.3c-5.2 0-10.2-0.9-14.9-2.7v1.9c0 5.9 4.7 10.6 10.6 10.6h8.6c5.9 0 10.6-4.7 10.6-10.6v-1.9c-4.7 1.8-9.7 2.7-14.9 2.7z"/>
			<path class="s4" d="m97.2 111.2c-4.2-0.2-8.3-1.1-12.1-2.6v1.9c0 5.9 4.7 10.6 10.6 10.6h8.6q0.9 0 1.7-0.1c-4.8-0.8-8.5-4.8-8.8-9.8z"/>
			<path class="s1" d="m115.2 149.2v-6.6c0-1.1-0.8-2-1.9-2h-26.6c-1.1 0-1.9 0.9-1.9 2v6.6z"/>
			<path class="s2" d="m96.5 149.2v-6.6c0-1.1 0.9-2 1.9-2h-11.7c-1.1 0-1.9 0.9-1.9 2v6.6z"/>
			<path class="s5" d="m136.9 182.4v-32c0-1.1-0.9-2-1.9-2h-70c-1 0-1.9 0.9-1.9 2v32z"/>
			<path class="s6" d="m69.1 182.4v-32c0-1.1 0.9-2 2-2h-6.1c-1 0-1.9 0.9-1.9 2v32z"/>
			<path class="s6" d="m145.1 182h-90.2c-1.1 0-2 0.9-2 2v3.6c13.9 7.9 30 12.4 47.1 12.4 17.1 0 33.2-4.5 47.1-12.4v-3.6c0-1.1-0.9-2-2-2z"/>
			<path class="s7" d="m64.8 184c0-1.1 0.9-2 2-2h-11.9c-1.1 0-2 0.9-2 2v3.6q5.8 3.3 11.9 5.7z"/>
			<path class="s1" d="m165.7 10h-15.1v3.3c0 0.8-0.7 1.5-1.6 1.5h-6.5c-0.2 0-0.4 0.2-0.4 0.4v4.6h20.5c-0.9 17.1-8.6 32.4-20.5 43.2v6.3q0 3.4-0.6 6.6c18.7-13.1 30.9-34.8 30.9-59.2 0-3.7-3-6.7-6.7-6.7z"/>
			<path class="s3" d="m57.9 69.3v-6.3c-11.9-10.8-19.6-26.1-20.5-43.2h20.5v-4.6c0-0.2-0.2-0.4-0.4-0.4h-6.5c-0.9 0-1.6-0.7-1.6-1.5v-3.3h-15.1c-3.7 0-6.7 3-6.7 6.7 0 24.4 12.2 46.1 30.9 59.2q-0.6-3.2-0.6-6.6z"/>
			<path class="s1" d="m57.5 14.8v54.5c0 23.4 19 42.4 42.5 42.4 23.5 0 42.5-19 42.5-42.4v-54.5z"/>
			<path class="s2" d="m66.3 69.2v-54.8h-8.5v54.8c0 23.5 19 42.5 42.4 42.5q2.2 0 4.3-0.2c-21.5-2.1-38.2-20.2-38.2-42.3z"/>
			<path class="s8" d="m110.1 78.8q-0.8 0-1.5-0.4l-7.9-4.1c-0.1-0.1-0.3-0.2-0.7-0.2-0.4 0-0.6 0.1-0.7 0.2l-7.9 4.1q-0.7 0.4-1.5 0.4c-0.7 0-1.3-0.3-1.8-0.8-0.5-0.6-0.7-1.5-0.5-2.4l1.5-8.7c0-0.4-0.2-1.2-0.5-1.4l-6.3-6.2c-0.9-0.9-1.2-1.9-0.9-2.8 0.3-0.9 1.2-1.6 2.3-1.7l8.8-1.3c0.4-0.1 1-0.5 1.2-0.9l3.9-7.9c0.6-1.1 1.4-1.7 2.4-1.7 1 0 1.8 0.6 2.4 1.7l3.9 7.9c0.2 0.4 0.8 0.8 1.2 0.9l8.8 1.3c1.1 0.1 2 0.8 2.3 1.7 0.3 0.9 0 1.9-0.9 2.8l-6.3 6.2c-0.3 0.2-0.5 1-0.5 1.4l1.5 8.7c0.2 0.9 0 1.8-0.5 2.4-0.5 0.5-1.1 0.8-1.8 0.8z"/>
			<path class="s9" d="m94 74.8l1.7-9.5c0-0.4-0.2-1.2-0.5-1.5l-6.9-6.8c-0.9-0.8-1.2-1.8-1-2.8l-3.6 0.6c-1.1 0.1-2 0.8-2.3 1.7-0.3 0.9 0 1.9 0.9 2.8l6.3 6.2c0.3 0.2 0.5 1 0.5 1.4l-1.5 8.7c-0.2 0.9 0 1.8 0.5 2.4 0.5 0.5 1.1 0.8 1.8 0.8q0.8 0 1.5-0.4l2.9-1.5c-0.3-0.6-0.4-1.3-0.3-2.1z"/>
			<path class="s3" d="m151 13.3c0 1.1-0.9 1.9-2 1.9h-98c-1.1 0-2-0.8-2-1.9v-11.3c0-1.1 0.9-2 2-2h98c1.1 0 2 0.9 2 2z"/>
			<path class="s4" d="m60.9 13.3v-11.3c0-1.1 0.9-2 2-2h-11.9c-1.1 0-2 0.9-2 2v11.3c0 1.1 0.9 1.9 2 1.9h11.9c-1.1 0-2-0.8-2-1.9z"/>
			<path class="s10" d="m110.5 163.7h-21c-1.1 0-2-0.9-2-2 0-1.1 0.9-1.9 2-1.9h21c1.1 0 2 0.8 2 1.9 0 1.1-0.9 2-2 2z"/>
			<path class="s10" d="m105.9 170.7h-11.8c-1 0-1.9-0.9-1.9-1.9 0-1.1 0.9-2 1.9-2h11.8c1 0 1.9 0.9 1.9 2 0 1-0.9 1.9-1.9 1.9z"/>
		</g>
	</g>
</svg>
